storage/app/icons/phosphoricons/thin/rug-thin.svg

<svg xmlns="http://www.w3.org/2000/svg" fill="currentColor" viewBox="0 0 256 256"><path d="M200 20a4 4 0 0 0-4 4v20h-40V24a4 4 0 0 0-8 0v20h-40V24a4 4 0 0 0-8 0v20H60V24a4 4 0 0 0-8 0v208a4 4 0 0 0 8 0v-20h40v20a4 4 0 0 0 8 0v-20h40v20a4 4 0 0 0 8 0v-20h40v20a4 4 0 0 0 8 0V24a4 4 0 0 0-4-4M60 52h136v152H60Zm68 120a4 4 0 0 0 3.43-1.94l24-40a4 4 0 0 0 0-4.12l-24-40a4 4 0 0 0-6.86 0l-24 40a4 4 0 0 0 0 4.12l24 40A4 4 0 0 0 128 172m0-76.23L147.33 128 128 160.23 108.67 128Z"/></svg>

<svg xmlns="http://www.w3.org/2000/svg" viewBox="0 0 256 256" fill="currentColor"><path d="M200,20a4,4,0,0,0-4,4V44H156V24a4,4,0,0,0-8,0V44H108V24a4,4,0,0,0-8,0V44H60V24a4,4,0,0,0-8,0V232a4,4,0,0,0,8,0V212h40v20a4,4,0,0,0,8,0V212h40v20a4,4,0,0,0,8,0V212h40v20a4,4,0,0,0,8,0V24A4,4,0,0,0,200,20ZM60,52H196V204H60Zm68,120a4,4,0,0,0,3.43-1.94l24-40a4,4,0,0,0,0-4.12l-24-40a4,4,0,0,0-6.86,0l-24,40a4,4,0,0,0,0,4.12l24,40A4,4,0,0,0,128,172Zm0-76.23L147.33,128,128,160.23,108.67,128Z"/></svg>
